library/css/icons/svgs/fi-graph-bar.svg

<svg xmlns="http://www.w3.org/2000/svg" width="100" height="100" viewBox="0 0 100 100"><path d="M46.05 60.163h-14.127c-.836 0-1.513.677-1.513 1.513v21.934c0 .836.677 1.513 1.513 1.513h14.127c.836 0 1.512-.677 1.512-1.513v-21.935c0-.836-.677-1.512-1.512-1.512zM68.077 14.878h-14.127c-.836 0-1.513.677-1.513 1.513v67.218c0 .836.677 1.513 1.513 1.513h14.127c.836 0 1.513-.677 1.513-1.513v-67.218c0-.836-.677-1.513-1.513-1.513zM90.217 35.299h-14.127c-.836 0-1.513.677-1.513 1.513v46.797c0 .836.677 1.513 1.513 1.513h14.126c.836 0 1.513-.677 1.513-1.513v-46.797c0-.835-.677-1.513-1.512-1.513zM23.91 35.299h-14.127c-.836 0-1.513.677-1.513 1.513v46.797c0 .836.677 1.513 1.513 1.513h14.127c.836 0 1.513-.677 1.513-1.513v-46.797c0-.835-.677-1.513-1.513-1.513z"/></svg>

<?xml version="1.0" encoding="utf-8"?>
<!-- Generator: Adobe Illustrator 17.0.0, SVG Export Plug-In . SVG Version: 6.00 Build 0)  -->
<!DOCTYPE svg PUBLIC "-//W3C//DTD SVG 1.1//EN" "http://www.w3.org/Graphics/SVG/1.1/DTD/svg11.dtd">
<svg version="1.1" id="Layer_1" xmlns="http://www.w3.org/2000/svg" xmlns:xlink="http://www.w3.org/1999/xlink" x="0px" y="0px"
	 width="100px" height="100px" viewBox="0 0 100 100" enable-background="new 0 0 100 100" xml:space="preserve">
<g>
	<g>
		<path d="M46.05,60.163H31.923c-0.836,0-1.513,0.677-1.513,1.513v21.934c0,0.836,0.677,1.513,1.513,1.513H46.05
			c0.836,0,1.512-0.677,1.512-1.513V61.675C47.562,60.839,46.885,60.163,46.05,60.163z"/>
	</g>
	<g>
		<path d="M68.077,14.878H53.95c-0.836,0-1.513,0.677-1.513,1.513v67.218c0,0.836,0.677,1.513,1.513,1.513h14.127
			c0.836,0,1.513-0.677,1.513-1.513V16.391C69.59,15.555,68.913,14.878,68.077,14.878z"/>
	</g>
	<g>
		<path d="M90.217,35.299H76.09c-0.836,0-1.513,0.677-1.513,1.513v46.797c0,0.836,0.677,1.513,1.513,1.513h14.126
			c0.836,0,1.513-0.677,1.513-1.513V36.812C91.729,35.977,91.052,35.299,90.217,35.299z"/>
	</g>
	<g>
		<path d="M23.91,35.299H9.783c-0.836,0-1.513,0.677-1.513,1.513v46.797c0,0.836,0.677,1.513,1.513,1.513H23.91
			c0.836,0,1.513-0.677,1.513-1.513V36.812C25.423,35.977,24.746,35.299,23.91,35.299z"/>
	</g>
</g>
</svg>
